X:119
T:Oaks Assembly. THO5.119, The
M:6/8
L:1/8
B:Thompson's Complete Collection of 200 Favourite Dances Vol.5
F:https://www.libraryofdance.org/manuals/1780c-Thompson-Compleat-5.pdf
Z:vmp. Peter Dunk 2024
Q:3/8=100
K:G
T:Oaks Assembly, The
M:6/8
L:1/8
R:Country Dance/Jig
B:Thompson - Compleat Collection of 200 Favourite Country Dances, vol. 5 (London, 1788, No. 119, p. 60)
Z:AK/Fiddler's Companion
K:G
D|G2G GAB|A2A ABc|Bdc BAG|FAG FED|
G2G GAB|A2A ABc|BAG DGF|G3-G2:|
|:B/c/|ded dbd|cdc cac|Bdc BAG|FAG FED|
.d2d dbd|c2c cac|BAG DGF|G3-G2:|
W:
W:Foot it all four and change sides ./.
W:the same back again ./:
W:Lead down the middle, up again and cast off :/.
W:Hands six round :/:

